svg/u1f4d2.svg

<svg viewBox="0 0 128 128" xmlns="http://www.w3.org/2000/svg">
  <g>
    <g>
      <path d="M105.48,121.61H34.01c-2.76,0-4.99-2.24-4.99-4.99V15.97c0-2.76,2.24-4.99,4.99-4.99h71.47 c3.82,0,6.92,2.18,6.92,6.92v96.81C112.39,118.52,109.3,121.61,105.48,121.61z" fill="#E2A610"/>
      <path d="M31.45,115.84c1.71,2.01,3.69,2.81,5.63,2.81l67.02-0.05c2.98,0,4.46-1.36,4.46-3.41l-0.17-21.43 H24.44l-0.68,13.96C23.76,107.71,29.74,113.83,31.45,115.84z" fill="#94C6D6"/>
      <path d="M101.64,105.81c0,0-2.13,5.85,0.03,8.78c2.51,3.4,6.89,2.58,6.89,0.99V16.37 c0-0.66-0.61-1.14-1.25-1c-1.39,0.3-3.89,0.31-7.21-1.89L101.64,105.81z" fill="#F5F5F5"/>
      <path d="M94.34,110.78H26.23c-6.9,0-5.51-7.29-5.51-7.29l2.92-90.95c0.1-3.43,2.9-6.15,6.33-6.15h66.1 c2.27,0,3.87,0.61,4.62,1.62c0.98,1.31,1.5,3.3,1.5,5.48v88.97C102.18,108.58,98.67,110.78,94.34,110.78z" fill="#E2A610"/>
      <path d="M92.18,107.71H25.71c-2.76,0-4.99-2.24-4.99-4.99V11.38c0-2.76,2.24-4.99,4.99-4.99h66.47 c3.82,0,6.92,2.18,6.92,6.92v87.49C99.09,104.61,96,107.71,92.18,107.71z" fill="#FFCA28"/>
    </g>
    <g>
      <g>
        <path d="M30.94,20.04l1.38-4.07c-4.3-1.58-9.84-0.7-11.6,0.62v4.59C22.21,20.51,25.43,19.23,30.94,20.04z " fill="#E2A610"/>
        <circle cx="32.32" cy="16.01" r="4.19" fill="#9E740B"/>
        <path d="M17.9,22.15c0-2.91,4.09-5.37,8.92-5.37c1.48,0,2.88,0.23,4.12,0.63 c1.15,0.37,2.38-0.21,2.75-1.36l0.01-0.04c0.36-1.12-0.26-2.31-1.38-2.68c-1.67-0.55-3.53-0.85-5.5-0.85 c-7.41,0-13.32,4.24-13.21,9.66c0.12,5.44,3.26,8.45,7.11,10.16v-5.71C17.97,25.03,17.9,23.16,17.9,22.15z" fill="#94D1E0"/>
        <path d="M18.08,21.08c-0.54,0.45-1.77,3.74-1.14,6.29c0.32,1.31,1.07,3.42,3.77,4.95v-5.94 C17.5,24.14,18.03,21.27,18.08,21.08z" fill="#2F7889"/>
      </g>
      <g>
        <path d="M30.94,36.21l1.38-4.07c-4.3-1.58-9.84-0.7-11.6,0.62v4.59C22.21,36.68,25.43,35.4,30.94,36.21z" fill="#E2A610"/>
        <circle cx="32.32" cy="32.32" r="4.19" fill="#9E740B"/>
        <path d="M17.9,38.32c0-2.91,4.09-5.37,8.92-5.37c1.48,0,2.88,0.23,4.12,0.63 c1.15,0.37,2.38-0.21,2.75-1.36l0.01-0.04c0.36-1.12-0.26-2.31-1.38-2.68c-1.67-0.55-3.53-0.85-5.5-0.85 c-7.41,0-13.32,4.24-13.21,9.66c0.12,5.44,3.26,8.45,7.11,10.16v-5.71C17.97,41.2,17.9,39.33,17.9,38.32z" fill="#94D1E0"/>
        <path d="M18,37.52c-0.54,0.45-1.69,3.76-1.06,6.3c0.32,1.31,1.07,3.14,3.77,4.66v-5.65 C17.5,40.59,17.95,37.71,18,37.52z" fill="#2F7889"/>
      </g>
      <g>
        <path d="M30.94,52.86l1.38-4.07c-4.3-1.58-9.84-0.7-11.6,0.62V54C22.21,53.33,25.43,52.05,30.94,52.86z" fill="#E2A610"/>
        <circle cx="32.32" cy="48.63" r="4.19" fill="#9E740B"/>
        <path d="M17.9,54.97c0-2.91,4.09-5.37,8.92-5.37c1.48,0,2.88,0.23,4.12,0.63 c1.15,0.37,2.38-0.21,2.75-1.36l0.01-0.04c0.36-1.12-0.26-2.31-1.38-2.68c-1.67-0.55-3.53-0.85-5.5-0.85 c-7.41,0-13.32,4.24-13.21,9.66c0.12,5.44,3.26,8.45,7.11,10.16v-5.71C17.97,57.85,17.9,55.98,17.9,54.97z" fill="#94D1E0"/>
        <path d="M18.05,53.88c-0.54,0.45-1.73,3.76-1.1,6.3c0.32,1.31,1.07,3.42,3.77,4.95V59.2 C17.5,56.96,17.99,54.07,18.05,53.88z" fill="#2F7889"/>
      </g>
      <g>
        <path d="M30.94,68.92l1.38-4.07c-4.3-1.58-9.84-0.7-11.6,0.62v4.59C22.21,69.38,25.43,68.11,30.94,68.92z " fill="#E2A610"/>
        <circle cx="32.32" cy="64.94" r="4.19" fill="#9E740B"/>
        <path d="M17.9,71.4c0-2.91,4.09-5.37,8.92-5.37c1.48,0,2.88,0.23,4.12,0.63 c1.15,0.37,2.38-0.21,2.75-1.36l0.01-0.04c0.36-1.12-0.26-2.31-1.38-2.68c-1.67-0.55-3.53-0.85-5.5-0.85 c-7.41,0-13.32,4.24-13.21,9.66c0.12,5.44,3.26,8.45,7.11,10.16v-5.71C17.97,74.27,17.9,72.41,17.9,71.4z" fill="#94D1E0"/>
        <path d="M18.05,70.31c-0.54,0.45-1.73,3.76-1.1,6.3c0.32,1.31,1.07,3.42,3.77,4.95v-5.94 C17.5,73.38,17.99,70.5,18.05,70.31z" fill="#2F7889"/>
      </g>
      <g>
        <path d="M30.94,85.3l1.38-4.07c-4.3-1.58-9.84-0.7-11.6,0.62v4.59C22.21,85.76,25.43,84.48,30.94,85.3z" fill="#E2A610"/>
        <circle cx="32.32" cy="81.26" r="4.19" fill="#9E740B"/>
        <path d="M17.9,87.4c0-2.91,4.09-5.37,8.92-5.37c1.48,0,2.88,0.23,4.12,0.63 c1.15,0.37,2.38-0.21,2.75-1.36l0.01-0.04c0.36-1.12-0.26-2.31-1.38-2.68c-1.67-0.55-3.53-0.85-5.5-0.85 c-7.41,0-13.32,4.24-13.21,9.66c0.12,5.44,3.26,8.45,7.11,10.16v-5.71C17.97,90.28,17.9,88.41,17.9,87.4z" fill="#94D1E0"/>
        <path d="M18.05,86.32c-0.54,0.45-1.73,3.76-1.1,6.3c0.32,1.31,1.07,3.42,3.77,4.95v-5.94 C17.5,89.39,18,86.51,18.05,86.32z" fill="#2F7889"/>
      </g>
      <g>
        <path d="M30.94,101.31l1.38-4.07c-4.3-1.58-9.84-0.7-11.6,0.62v4.59 C22.21,101.77,25.43,100.49,30.94,101.31z" fill="#E2A610"/>
        <circle cx="32.32" cy="97.57" r="4.19" fill="#9E740B"/>
        <path d="M26.73,110.78h-0.5c-2.59,0-4-1.03-4.77-2.32c-3.58-1.82-3.56-4.36-3.56-5.05 c0-2.91,4.09-5.37,8.92-5.37c1.48,0,2.88,0.23,4.12,0.63c1.15,0.37,2.38-0.21,2.75-1.36l0.01-0.04 c0.36-1.12-0.26-2.31-1.38-2.68c-1.67-0.55-3.53-0.85-5.5-0.85c-7.41,0-13.21,4.24-13.21,9.66c0,6.53,2.42,9.79,15.41,11.93 v-2.17C28.27,112.39,27.48,111.56,26.73,110.78z" fill="#94D1E0"/>
        <path d="M26.73,110.78h-0.5c-2.59,0-4-1.03-4.77-2.32c-3.58-1.82-3.56-4.36-3.56-5.05 c0-2.91,4.09-5.37,8.92-5.37c1.48,0,2.88,0.23,4.12,0.63c1.15,0.37,2.38-0.21,2.75-1.36l0.01-0.04 c0.36-1.12-0.26-2.31-1.38-2.68c-1.67-0.55-3.53-0.85-5.5-0.85c-7.41,0-13.21,4.24-13.21,9.66c0,6.53,2.4,10.03,15.41,11.93 v-2.17C28.27,112.39,27.48,111.56,26.73,110.78z" fill="#94D1E0"/>
        <path d="M26.73,110.78h-0.5c-2.59,0-4-1.03-4.77-2.32c-3.58-1.82-3.56-4.36-3.56-5.05 c0-0.36,0.06-0.72,0.18-1.07c-0.01-0.01-0.03-0.02-0.03-0.02c-0.54,0.45-1.73,3.76-1.1,6.3c0.23,0.94,0.44,2.77,3.67,4.68 c2.13,0.79,4.88,1.45,8.4,2.03v-2.16C28.27,112.39,27.48,111.56,26.73,110.78z" fill="#2F7889"/>
      </g>
    </g>
  </g>
</svg>

<svg viewBox="0 0 128 128" xmlns="http://www.w3.org/2000/svg">
  <defs/>
  <path d="M105.48,121.61 L34.01,121.61 C31.25,121.61 29.02,119.37 29.02,116.62 L29.02,15.97 C29.02,13.21 31.26,10.98 34.01,10.98 L105.48,10.98 C109.3,10.98 112.4,13.16 112.4,17.9 L112.4,114.71 C112.39,118.52 109.3,121.61 105.48,121.61 Z" fill="#E2A610"/>
  <path d="M31.45,115.84 C33.16,117.85 35.14,118.65 37.08,118.65 L104.1,118.6 C107.08,118.6 108.56,117.24 108.56,115.19 L108.39,93.76 L24.44,93.76 L23.76,107.72 C23.76,107.71 29.74,113.83 31.45,115.84 Z" fill="#94C6D6"/>
  <path d="M101.64,105.81 C101.64,105.81 99.51,111.66 101.67,114.59 C104.18,117.99 108.56,117.17 108.56,115.58 L108.56,16.37 C108.56,15.71 107.95,15.23 107.31,15.37 C105.92,15.67 103.42,15.68 100.1,13.48 L101.64,105.81 Z" fill="#F5F5F5"/>
  <path d="M94.34,110.78 L26.23,110.78 C19.33,110.78 20.72,103.49 20.72,103.49 L23.64,12.54 C23.74,9.11 26.54,6.39 29.97,6.39 L96.07,6.39 C98.34,6.39 99.94,7 100.69,8.01 C101.67,9.32 102.19,11.31 102.19,13.49 L102.19,102.46 C102.18,108.58 98.67,110.78 94.34,110.78 Z" fill="#E2A610"/>
  <path d="M92.18,107.71 L25.71,107.71 C22.95,107.71 20.72,105.47 20.72,102.72 L20.72,11.38 C20.72,8.62 22.96,6.39 25.71,6.39 L92.18,6.39 C96,6.39 99.1,8.57 99.1,13.31 L99.1,100.8 C99.09,104.61 96,107.71 92.18,107.71 Z" fill="#FFCA28"/>
  <path d="M30.94,20.04 L32.32,15.97 C28.02,14.39 22.48,15.27 20.72,16.59 L20.72,21.18 C22.21,20.51 25.43,19.23 30.94,20.04 Z" fill="#E2A610"/>
  <path d="M36.51,16.01 A4.19 4.19 0 1 1 28.13,16.01 A4.19 4.19 0 1 1 36.51,16.01 Z" fill="#9E740B"/>
  <path d="M17.9,22.15 C17.9,19.24 21.99,16.78 26.82,16.78 C28.3,16.78 29.7,17.01 30.94,17.41 C32.09,17.78 33.32,17.2 33.69,16.05 L33.7,16.01 C34.06,14.89 33.44,13.7 32.32,13.33 C30.65,12.78 28.79,12.48 26.82,12.48 C19.41,12.48 13.5,16.72 13.61,22.14 C13.73,27.58 16.87,30.59 20.72,32.3 L20.72,26.59 C17.97,25.03 17.9,23.16 17.9,22.15 Z" fill="#94D1E0"/>
  <path d="M18.08,21.08 C17.54,21.53 16.31,24.82 16.94,27.37 C17.26,28.68 18.01,30.79 20.71,32.32 L20.71,26.38 C17.5,24.14 18.03,21.27 18.08,21.08 Z" fill="#2F7889"/>
  <path d="M30.94,36.21 L32.32,32.14 C28.02,30.56 22.48,31.44 20.72,32.76 L20.72,37.35 C22.21,36.68 25.43,35.4 30.94,36.21 Z" fill="#E2A610"/>
  <path d="M36.51,32.32 A4.19 4.19 0 1 1 28.13,32.32 A4.19 4.19 0 1 1 36.51,32.32 Z" fill="#9E740B"/>
  <path d="M17.9,38.32 C17.9,35.41 21.99,32.95 26.82,32.95 C28.3,32.95 29.7,33.18 30.94,33.58 C32.09,33.95 33.32,33.37 33.69,32.22 L33.7,32.18 C34.06,31.06 33.44,29.87 32.32,29.5 C30.65,28.95 28.79,28.65 26.82,28.65 C19.41,28.65 13.5,32.89 13.61,38.31 C13.73,43.75 16.87,46.76 20.72,48.47 L20.72,42.76 C17.97,41.2 17.9,39.33 17.9,38.32 Z" fill="#94D1E0"/>
  <path d="M18,37.52 C17.46,37.97 16.31,41.28 16.94,43.82 C17.26,45.13 18.01,46.96 20.71,48.48 L20.71,42.83 C17.5,40.59 17.95,37.71 18,37.52 Z" fill="#2F7889"/>
  <path d="M30.94,52.86 L32.32,48.79 C28.02,47.21 22.48,48.09 20.72,49.41 L20.72,54 C22.21,53.33 25.43,52.05 30.94,52.86 Z" fill="#E2A610"/>
  <path d="M36.51,48.63 A4.19 4.19 0 1 1 28.13,48.63 A4.19 4.19 0 1 1 36.51,48.63 Z" fill="#9E740B"/>
  <path d="M17.9,54.97 C17.9,52.06 21.99,49.6 26.82,49.6 C28.3,49.6 29.7,49.83 30.94,50.23 C32.09,50.6 33.32,50.02 33.69,48.87 L33.7,48.83 C34.06,47.71 33.44,46.52 32.32,46.15 C30.65,45.6 28.79,45.3 26.82,45.3 C19.41,45.3 13.5,49.54 13.61,54.96 C13.73,60.4 16.87,63.41 20.72,65.12 L20.72,59.41 C17.97,57.85 17.9,55.98 17.9,54.97 Z" fill="#94D1E0"/>
  <path d="M18.05,53.88 C17.51,54.33 16.32,57.64 16.95,60.18 C17.27,61.49 18.02,63.6 20.72,65.13 L20.72,59.2 C17.5,56.96 17.99,54.07 18.05,53.88 Z" fill="#2F7889"/>
  <path d="M30.94,68.92 L32.32,64.85 C28.02,63.27 22.48,64.15 20.72,65.47 L20.72,70.06 C22.21,69.38 25.43,68.11 30.94,68.92 Z" fill="#E2A610"/>
  <path d="M36.51,64.94 A4.19 4.19 0 1 1 28.13,64.94 A4.19 4.19 0 1 1 36.51,64.94 Z" fill="#9E740B"/>
  <path d="M17.9,71.4 C17.9,68.49 21.99,66.03 26.82,66.03 C28.3,66.03 29.7,66.26 30.94,66.66 C32.09,67.03 33.32,66.45 33.69,65.3 L33.7,65.26 C34.06,64.14 33.44,62.95 32.32,62.58 C30.65,62.03 28.79,61.73 26.82,61.73 C19.41,61.73 13.5,65.97 13.61,71.39 C13.73,76.83 16.87,79.84 20.72,81.55 L20.72,75.84 C17.97,74.27 17.9,72.41 17.9,71.4 Z" fill="#94D1E0"/>
  <path d="M18.05,70.31 C17.51,70.76 16.32,74.07 16.95,76.61 C17.27,77.92 18.02,80.03 20.72,81.56 L20.72,75.62 C17.5,73.38 17.99,70.5 18.05,70.31 Z" fill="#2F7889"/>
  <path d="M30.94,85.3 L32.32,81.23 C28.02,79.65 22.48,80.53 20.72,81.85 L20.72,86.44 C22.21,85.76 25.43,84.48 30.94,85.3 Z" fill="#E2A610"/>
  <path d="M36.51,81.26 A4.19 4.19 0 1 1 28.13,81.26 A4.19 4.19 0 1 1 36.51,81.26 Z" fill="#9E740B"/>
  <path d="M17.9,87.4 C17.9,84.49 21.99,82.03 26.82,82.03 C28.3,82.03 29.7,82.26 30.94,82.66 C32.09,83.03 33.32,82.45 33.69,81.3 L33.7,81.26 C34.06,80.14 33.44,78.95 32.32,78.58 C30.65,78.03 28.79,77.73 26.82,77.73 C19.41,77.73 13.5,81.97 13.61,87.39 C13.73,92.83 16.87,95.84 20.72,97.55 L20.72,91.84 C17.97,90.28 17.9,88.41 17.9,87.4 Z" fill="#94D1E0"/>
  <path d="M18.05,86.32 C17.51,86.77 16.32,90.08 16.95,92.62 C17.27,93.93 18.02,96.04 20.72,97.57 L20.72,91.63 C17.5,89.39 18,86.51 18.05,86.32 Z" fill="#2F7889"/>
  <path d="M30.94,101.31 L32.32,97.24 C28.02,95.66 22.48,96.54 20.72,97.86 L20.72,102.45 C22.21,101.77 25.43,100.49 30.94,101.31 Z" fill="#E2A610"/>
  <path d="M36.51,97.57 A4.19 4.19 0 1 1 28.13,97.57 A4.19 4.19 0 1 1 36.51,97.57 Z" fill="#9E740B"/>
  <path d="M26.73,110.78 L26.23,110.78 C23.64,110.78 22.23,109.75 21.46,108.46 C17.88,106.64 17.9,104.1 17.9,103.41 C17.9,100.5 21.99,98.04 26.82,98.04 C28.3,98.04 29.7,98.27 30.94,98.67 C32.09,99.04 33.32,98.46 33.69,97.31 L33.7,97.27 C34.06,96.15 33.44,94.96 32.32,94.59 C30.65,94.04 28.79,93.74 26.82,93.74 C19.41,93.74 13.61,97.98 13.61,103.4 C13.61,109.93 16.03,113.19 29.02,115.33 L29.02,113.16 C28.27,112.39 27.48,111.56 26.73,110.78 Z" fill="#94D1E0"/>
  <path d="M26.73,110.78 L26.23,110.78 C23.64,110.78 22.23,109.75 21.46,108.46 C17.88,106.64 17.9,104.1 17.9,103.41 C17.9,100.5 21.99,98.04 26.82,98.04 C28.3,98.04 29.7,98.27 30.94,98.67 C32.09,99.04 33.32,98.46 33.69,97.31 L33.7,97.27 C34.06,96.15 33.44,94.96 32.32,94.59 C30.65,94.04 28.79,93.74 26.82,93.74 C19.41,93.74 13.61,97.98 13.61,103.4 C13.61,109.93 16.01,113.43 29.02,115.33 L29.02,113.16 C28.27,112.39 27.48,111.56 26.73,110.78 Z" fill="#94D1E0"/>
  <path d="M26.73,110.78 L26.23,110.78 C23.64,110.78 22.23,109.75 21.46,108.46 C17.88,106.64 17.9,104.1 17.9,103.41 C17.9,103.05 17.96,102.69 18.08,102.34 C18.07,102.33 18.05,102.32 18.05,102.32 C17.51,102.77 16.32,106.08 16.95,108.62 C17.18,109.56 17.39,111.39 20.62,113.3 C22.75,114.09 25.5,114.75 29.02,115.33 L29.02,113.17 C28.27,112.39 27.48,111.56 26.73,110.78 Z" fill="#2F7889"/>
</svg>
